X:1
T:Windy Bill
M:4/4
L:1/4
K:F
 c| F F F F/2G/2| A A A A| G F F D| F2 z| F| F F AB/2-c/2| d c c c/2c/2|\
 c c A F| c2 z| c/2c/2| d d d B/2B/2| c c c3/2 c/2| c/2c/2 c A F| c2 z|\
C/2-C/2| F FF/2-F/2 G| A A A3/2 F/2| G/2G/2 G F D| F2 z||

